X: 09263
M: 6/8
L: 1/8
K: G
V: 1 clef=treble middle=B
|:\
[d3B3] dBd | G2[BG] [c2A2][ec] | [d3B3] dBd | [A2F2][BG] [c2A2]e |\
[d3B3] dBd | G2[BG] [c2A2][ec] | gfe dcB | [A2F2][BG] [c2A2]e :|
|:\
gbg dBd | gbg dBd | gbg dcB | [A2F2][BG] [c2A2]e |\
gbg a2c' | bag fed | gfe dcB | [A2F2][BG] [c2A2]e :|
V: 2 clef=bass middle=d
|:\
|:\
g3 d3 | G3 g3 |  G3 g3 | d3- d2z :|

